X:1
T:Title
%%score { ( 1 2 5 ) | ( 3 4 6 ) }
L:1/8
M:6/8
K:Eb
V:1 treble nm="Grand Piano"
V:2 treble 
V:5 treble 
V:3 bass 
V:4 bass 
V:6 bass 
V:1
 z3 z z[Q:1/4=100] z/ F/ | G>FE ABc | B3 G2 z/ F/ | G>FE BAG |[M:5/8] [DF]-[DF]- [DF]3 | %5
[M:1/8] z/ F/ |[M:3/4] G>F EA Bc | B3 G2 z/ F/ | [B,EG][B,EB] [CEA][B,EG] [G,E]>[A,DF] | E6 | %10
 c>=B cA _Bc | B>=A B G2 G | %12
[M:27/32] z/4 z/4 z/4 z/4 z/4 z/4 z/4 z/4 z/4 z/4 z/4 z/4 z/4 z/4 z/ d/4-d/4-d/4-d/4-d/4-d/4-d/-<d/ z/4 | %13
[M:3/4] (7:8:7[B,DB-]3/4[DB]-[DB-]/8[EB-]3/4[FB]3/8-[FB]3/2[B,DA]3/4 | %14
 (9:8:10G3/2F3/4 G-G/8A3/8-A-A/8G3/4A-A/8 |[M:7/8] z z2 c3 c | %16
[M:3/4] (9:8:10B-B/8E-E/8 A-A/8G-G/8 [DG]3/2[DF]3/4 |[M:5/8] E-E- E3 |] %18
V:2
 z3 z2 E | x6 | z3 z2 E | x6 |[M:5/8] x5 |[M:1/8] E |[M:3/4] x6 | z2 z2 z E | x6 | x6 | x6 | x6 | %12
[M:27/32] F/-<F/G/-<G/=A/-<A/A/-<A/ z/4 z/4 z/4 z/4 z/4 z/4 z/ c3/4 |[M:3/4] x6 | x6 | %15
[M:7/8] B-B/4 z/4 z/ [Bd]- [Bd]/4 z/4 z/ z z2 |[M:3/4] x6 |[M:5/8] x5 |] %18
V:3
 z3 z2 G,/A,/ | [E,B,E]>[E,A,D][E,G,] [E,CE][E,G,E][E,A,E] | [E,G,E]3 [E,B,E]2 G,/A,/ | %3
 [E,B,E]>[E,A,E][E,G,] [G,B,E][F,B,D][E,B,E] |[M:5/8] [B,,B,]-[B,,B,]- [B,,B,]3 |[M:1/8] G,/A,/ | %6
[M:3/4] [E,B,E]>[E,A,D] [E,G,][E,CE] [E,G,E][E,A,E] | [E,G,E]3 [E,B,E]2 [E,G,]/[C,=A,]/ | %8
 B,,G,, A,,B,, B,,>B,, | [E,G,]6 | [A,E]>[A,D] [A,E][A,CE] [A,B,E][A,E] | %11
 [E,G,E]>[E,_G,E] [E,=G,E] [E,B,E]2 [E,B,E] | %12
[M:27/32] [F,=A,E]/-<[F,A,E]/[F,B,E]/-<[F,B,E]/[F,CE]/-<[F,CE]/[F,CE]/-<[F,CE]/F/4-F/4-F/4-F/4-F/-<F/-[F,-A,-E-F]/[F,A,E]/4 | %13
[M:3/4] (7:8:7B,,3/4-[B,,F,]-[B,,-F,]/8[B,,-G,]3/4[B,,A,]3/8-[B,,A,]3/2B,,3/4 | %14
 (9:8:10[E,B,E]3/2[E,B,D]3/4 [E,B,E]-[E,B,E]/8[F,B,D]3/8-[F,B,D]-[F,B,D]/8[F,B,D]3/4[F,B,D]-[F,B,D]/8 | %15
[M:7/8][K:treble] [G,E]-[G,E]/4 z/4 z/ E E3 [=A,E_G] | %16
[M:3/4] (9:8:10[B,EG]-[B,EG]/8[K:bass][G,B,]-[G,B,]/8 [F,CE]-[F,CE]/8[B,E]-[B,E]/8 [B,,B,]3/2[B,,A,]3/4 | %17
[M:5/8] [E,G,]-[E,G,]- [E,G,]3 |] %18
V:4
 z3 z2 E, | x6 | z3 z2 E, | x6 |[M:5/8] x5 |[M:1/8] E, |[M:3/4] x6 | x6 | x6 | x6 | x6 | x6 | %12
[M:27/32] z/4 z/4 z/4 z/4 z/4 z/4 z/4 z/4 z/4 z/4 z/4 z/4 z/4 z/4 z/ [F,=A,]/4-[F,A,]/4-[F,A,]/4-[F,A,]/4-[F,A,]/-<[F,A,]/ z/4 z/ | %13
[M:3/4] x6 | x6 |[M:7/8][K:treble] B,[E,B,]-[E,B,]/4 z/4 z/ [A,A]- [A,A]2- [A,A]/4 z/4 z/ | %16
[M:3/4] x[K:bass] x5 |[M:5/8] x5 |] %18
V:5
 x6 | x6 | x6 | x6 |[M:5/8] x5 |[M:1/8] x |[M:3/4] x6 | x6 | x6 | x6 | x6 | x6 |[M:27/32] x27/4 | %13
[M:3/4] x6 | x6 |[M:7/8] z [Ge]-[Ge]/4 z/4 z/ z z z2 |[M:3/4] x6 |[M:5/8] x5 |] %18
V:6
 x6 | x6 | x6 | x6 |[M:5/8] x5 |[M:1/8] x |[M:3/4] x6 | x6 | x6 | x6 | x6 | x6 |[M:27/32] x27/4 | %13
[M:3/4] x6 | x6 |[M:7/8][K:treble] z2 G,- G,/4 z/4 z/ z z2 |[M:3/4] x[K:bass] x5 |[M:5/8] x5 |] %18

